src/public/images/news-header-menu-logo.svg

<svg width="124" height="28" viewBox="0 0 124 28" fill="none" xmlns="http://www.w3.org/2000/svg">
<path d="M2.376 22C2.2 22 2.056 21.944 1.944 21.832C1.832 21.72 1.776 21.576 1.776 21.4V5.8C1.776 5.624 1.832 5.48 1.944 5.368C2.056 5.256 2.2 5.2 2.376 5.2H9.504C10.832 5.2 11.92 5.392 12.768 5.776C13.616 6.16 14.24 6.704 14.64 7.408C15.056 8.112 15.264 8.936 15.264 9.88C15.264 10.472 15.152 10.992 14.928 11.44C14.72 11.888 14.456 12.256 14.136 12.544C13.832 12.832 13.536 13.048 13.248 13.192C13.872 13.48 14.416 13.96 14.88 14.632C15.36 15.288 15.6 16.072 15.6 16.984C15.6 17.992 15.376 18.872 14.928 19.624C14.48 20.376 13.816 20.96 12.936 21.376C12.056 21.792 10.984 22 9.72 22H2.376ZM5.592 19.192H9.264C10.048 19.192 10.64 18.976 11.04 18.544C11.44 18.096 11.64 17.568 11.64 16.96C11.64 16.336 11.432 15.816 11.016 15.4C10.616 14.968 10.032 14.752 9.264 14.752H5.592V19.192ZM5.592 11.992H9.048C9.8 11.992 10.36 11.808 10.728 11.44C11.112 11.056 11.304 10.568 11.304 9.976C11.304 9.384 11.112 8.912 10.728 8.56C10.36 8.192 9.8 8.008 9.048 8.008H5.592V11.992ZM18.7995 22C18.6235 22 18.4795 21.944 18.3675 21.832C18.2555 21.72 18.1995 21.576 18.1995 21.4V5.56C18.1995 5.384 18.2555 5.24 18.3675 5.128C18.4795 5.016 18.6235 4.96 18.7995 4.96H21.1995C21.3595 4.96 21.4955 5.016 21.6075 5.128C21.7195 5.24 21.7755 5.384 21.7755 5.56V21.4C21.7755 21.576 21.7195 21.72 21.6075 21.832C21.4955 21.944 21.3595 22 21.1995 22H18.7995ZM28.4809 22.24C27.6329 22.24 26.8729 22.08 26.2009 21.76C25.5289 21.424 24.9929 20.976 24.5929 20.416C24.1929 19.856 23.9929 19.232 23.9929 18.544C23.9929 17.408 24.4489 16.512 25.3609 15.856C26.2889 15.2 27.5049 14.752 29.0089 14.512L32.1529 14.056V13.624C32.1529 13 32.0089 12.52 31.7209 12.184C31.4329 11.848 30.9289 11.68 30.2089 11.68C29.6809 11.68 29.2569 11.784 28.9369 11.992C28.6169 12.2 28.3689 12.472 28.1929 12.808C28.0649 13.016 27.8809 13.12 27.6409 13.12H25.3609C25.1849 13.12 25.0489 13.072 24.9529 12.976C24.8569 12.864 24.8169 12.736 24.8329 12.592C24.8329 12.32 24.9369 12 25.1449 11.632C25.3529 11.264 25.6729 10.904 26.1049 10.552C26.5369 10.184 27.0889 9.88 27.7609 9.64C28.4329 9.4 29.2569 9.28 30.2329 9.28C31.2409 9.28 32.1049 9.4 32.8249 9.64C33.5449 9.88 34.1209 10.216 34.5529 10.648C34.9849 11.08 35.3049 11.584 35.5129 12.16C35.7209 12.72 35.8249 13.328 35.8249 13.984V21.4C35.8249 21.576 35.7689 21.72 35.6569 21.832C35.5449 21.944 35.4009 22 35.2249 22H32.8729C32.7129 22 32.5769 21.944 32.4649 21.832C32.3529 21.72 32.2969 21.576 32.2969 21.4V20.512C32.0889 20.816 31.8089 21.104 31.4569 21.376C31.1049 21.632 30.6809 21.84 30.1849 22C29.7049 22.16 29.1369 22.24 28.4809 22.24ZM29.4409 19.744C29.9689 19.744 30.4409 19.632 30.8569 19.408C31.2729 19.184 31.6009 18.84 31.8409 18.376C32.0809 17.912 32.2009 17.328 32.2009 16.624V16.216L29.9689 16.576C29.1049 16.72 28.4729 16.936 28.0729 17.224C27.6729 17.512 27.4729 17.864 27.4729 18.28C27.4729 18.584 27.5609 18.848 27.7369 19.072C27.9289 19.296 28.1769 19.464 28.4809 19.576C28.7849 19.688 29.1049 19.744 29.4409 19.744ZM39.3068 22C39.1468 22 39.0108 21.944 38.8988 21.832C38.7868 21.72 38.7308 21.576 38.7308 21.4V10.12C38.7308 9.944 38.7868 9.8 38.8988 9.688C39.0108 9.576 39.1468 9.52 39.3068 9.52H41.6588C41.8348 9.52 41.9788 9.576 42.0908 9.688C42.2028 9.8 42.2588 9.944 42.2588 10.12V11.056C42.6748 10.544 43.2108 10.12 43.8668 9.784C44.5228 9.448 45.3228 9.28 46.2668 9.28C47.2108 9.28 48.0348 9.496 48.7388 9.928C49.4588 10.344 50.0188 10.96 50.4188 11.776C50.8348 12.576 51.0428 13.552 51.0428 14.704V21.4C51.0428 21.576 50.9788 21.72 50.8508 21.832C50.7388 21.944 50.6028 22 50.4427 22H47.8988C47.7228 22 47.5788 21.944 47.4668 21.832C47.3548 21.72 47.2988 21.576 47.2988 21.4V14.848C47.2988 14 47.0908 13.344 46.6748 12.88C46.2748 12.4 45.6828 12.16 44.8988 12.16C44.1468 12.16 43.5468 12.4 43.0988 12.88C42.6508 13.344 42.4268 14 42.4268 14.848V21.4C42.4268 21.576 42.3708 21.72 42.2588 21.832C42.1468 21.944 42.0108 22 41.8508 22H39.3068Z" fill="#262541"/>
<g clip-path="url(#clip0_84_6020)">
<path d="M66.4646 24.6414L66.2108 24.6314C63.0107 24.5562 59.9673 23.2387 57.7325 20.961C55.4977 18.6833 54.249 15.6265 54.2539 12.4451C54.2539 5.72253 59.7476 0.252441 66.4988 0.252441C73.2501 0.252441 78.7463 5.72253 78.7463 12.4451C78.7463 15.158 77.7704 17.8433 75.8466 20.4276C74.5993 22.0763 73.1266 23.5439 71.4709 24.7878C71.0141 25.1371 70.5407 25.4676 70.0674 25.7715C68.9279 26.5021 67.7217 27.1242 66.4646 27.6294V24.6414Z" fill="#988CDA"/>
<path d="M66.4988 0.504505C69.6813 0.51085 72.7313 1.77153 74.9797 4.00999C77.2282 6.24844 78.4915 9.28188 78.4925 12.4449C78.4925 15.1023 77.5331 17.7422 75.6422 20.2773C74.41 21.9074 72.9542 23.358 71.3174 24.587C70.8656 24.9314 70.3986 25.2593 69.929 25.5595C68.9096 26.2141 67.8354 26.7804 66.7184 27.2521V24.8771V24.3915L66.2222 24.3802C63.0872 24.308 60.1053 23.0182 57.9156 20.7872C55.7259 18.5562 54.5026 15.5615 54.5077 12.4449C54.5077 5.86108 59.8871 0.504505 66.4988 0.504505ZM66.4988 0C63.2067 0.00523075 60.049 1.29899 57.7096 3.60115C55.3702 5.90332 54.0372 9.02863 53.9994 12.3004C53.9615 15.5722 55.2217 18.7272 57.5072 21.0822C59.7927 23.4373 62.9196 24.8029 66.2108 24.8834V28C67.6084 27.4659 68.9467 26.7896 70.2044 25.982C70.6917 25.6709 71.1655 25.3392 71.6257 24.9868C73.2989 23.7256 74.7881 22.24 76.0509 20.5724C77.8186 18.2038 79.0001 15.4429 79.0001 12.4449C79.0016 10.8119 78.6794 9.19456 78.0519 7.68532C77.4245 6.17608 76.504 4.80447 75.3431 3.64883C74.1823 2.49318 72.8037 1.57614 71.2862 0.950064C69.7686 0.323993 68.1419 0.00115889 66.4988 0V0Z" fill="white"/>
<path fill-rule="evenodd" clip-rule="evenodd" d="M66.5001 5.29469C62.5332 5.29469 59.3174 8.49082 59.3174 12.4334C59.3174 16.376 62.5332 19.5722 66.5001 19.5722C70.467 19.5722 73.6829 16.376 73.6829 12.4334C73.6829 8.49082 70.467 5.29469 66.5001 5.29469ZM58.6829 12.4334C58.6829 8.14253 62.1828 4.66406 66.5001 4.66406C70.8175 4.66406 74.3174 8.14253 74.3174 12.4334C74.3174 16.7243 70.8175 20.2028 66.5001 20.2028C62.1828 20.2028 58.6829 16.7243 58.6829 12.4334Z" fill="white"/>
<path d="M70.1437 9.58575C69.4159 8.66543 68.3626 8.05523 67.1982 7.87926V5.12971L69.4394 3.88232C70.564 4.2621 71.6018 4.85968 72.4927 5.64052C72.5079 6.49734 72.5223 7.355 72.5358 8.2135L70.1437 9.58575Z" fill="white"/>
<path d="M69.4634 4.16209C70.4805 4.52062 71.4223 5.06281 72.2413 5.76137C72.254 6.53158 72.2667 7.30221 72.2794 8.07326L70.2019 9.26642C69.4913 8.44236 68.5229 7.8792 67.452 7.66714V5.27705L69.4634 4.16209ZM69.4126 3.61218L66.9443 4.98191V8.10227C67.5663 8.16464 68.1676 8.35879 68.7076 8.67166C69.2477 8.98453 69.714 9.40883 70.075 9.91597L72.7921 8.35705C72.7768 7.41362 72.7612 6.4702 72.7451 5.52678L72.7388 5.51921C71.7772 4.66074 70.6467 4.01007 69.419 3.6084L69.4126 3.61218Z" fill="white"/>
<path d="M70.8071 14.1322C71.2358 13.0561 71.2421 11.8591 70.8249 10.7785L73.2297 9.39746L75.4188 10.6865C75.5387 11.2827 75.5965 11.8896 75.5914 12.4976C75.5878 13.0759 75.5279 13.6525 75.4125 14.2193L73.2043 15.5133L70.8071 14.1322Z" fill="white"/>
<path d="M73.2285 9.69029L75.1929 10.8469C75.2938 11.3914 75.3426 11.9442 75.3389 12.4979C75.3358 13.0223 75.2848 13.5453 75.1866 14.0606L74.7132 14.3368L74.0559 14.7152L73.7196 14.9132L73.2044 15.2134L71.1219 14.0164C71.4694 13.0038 71.4729 11.9058 71.132 10.891L73.2247 9.69029M73.2247 9.10506L70.5051 10.6703C70.7552 11.233 70.8827 11.8419 70.8795 12.457C70.8762 13.0721 70.7421 13.6796 70.4861 14.2397L73.2056 15.8011L74.3122 15.1541L75.6371 14.3784C75.9123 13.1084 75.9149 11.795 75.6447 10.524L73.2335 9.10254L73.2247 9.10506Z" fill="white"/>
<path d="M67.1982 19.7335V16.9853C68.3471 16.8127 69.3888 16.2176 70.117 15.3179L72.5155 16.6939L72.4914 17.829L72.4622 19.2568C71.5799 20.0217 70.5562 20.6085 69.4482 20.9847L67.1982 19.7335Z" fill="white"/>
<path d="M70.169 15.6393L72.254 16.8349L72.2451 17.2133L72.2324 17.8187C72.2324 17.994 72.2235 18.2829 72.2172 18.5755C72.2172 18.7735 72.2096 18.9728 72.2058 19.1367C71.8103 19.4702 71.3856 19.7678 70.9367 20.0259C70.4678 20.2977 69.9746 20.5257 69.4634 20.707L68.4304 20.1306L67.452 19.5857V17.1969C68.5056 16.9894 69.4607 16.4418 70.169 15.6393ZM70.0421 14.9859C69.6808 15.4823 69.2181 15.8972 68.6842 16.2034C68.1504 16.5097 67.5575 16.7004 66.9443 16.763V19.8821L69.4177 21.2594C70.6339 20.8607 71.7542 20.2166 72.7083 19.3675C72.7159 19.0119 72.7324 18.1857 72.74 17.8301C72.7464 17.5425 72.7591 16.9472 72.7679 16.5448L70.0459 14.9834L70.0421 14.9859Z" fill="white"/>
<path d="M63.5635 20.9885C62.4571 20.6146 61.4344 20.0308 60.552 19.2694L60.5228 17.8404C60.5152 17.5112 60.5063 17.0836 60.5 16.7052L62.8959 15.3267C63.6255 16.2238 64.667 16.8165 65.8147 16.9877V19.7335L63.5635 20.9885Z" fill="white"/>
<path d="M62.8401 15.6506C63.5522 16.4503 64.5091 16.995 65.5634 17.2007V19.5857L63.533 20.712C62.5336 20.3601 61.6066 19.831 60.797 19.1506C60.797 18.9816 60.797 18.7975 60.7868 18.6133C60.7805 18.3396 60.7754 18.0634 60.7703 17.8326C60.7703 17.5475 60.7563 17.1868 60.75 16.8463L62.8338 15.6506M62.9607 14.9985L60.2437 16.5587C60.2513 16.9737 60.2614 17.4731 60.269 17.8452C60.2779 18.298 60.2919 18.9337 60.3008 19.3852C60.7863 19.8151 61.3163 20.1927 61.882 20.5115C62.4237 20.8214 62.9961 21.075 63.5901 21.2683L66.0711 19.8884V16.7643C65.4568 16.7045 64.8623 16.5163 64.3264 16.212C63.7906 15.9077 63.3256 15.4941 62.9619 14.9985H62.9607Z" fill="white"/>
<path d="M57.5851 14.2215C57.3514 13.0539 57.3492 11.8522 57.5787 10.6837L58.8668 9.92695L59.778 9.38965L62.179 10.7644C61.755 11.8533 61.7614 13.0614 62.1968 14.1459L59.8034 15.5131L57.5851 14.2215Z" fill="white"/>
<path d="M59.7793 9.67849L61.8681 10.8779C61.5218 11.9017 61.5271 13.0107 61.8833 14.0311L59.8047 15.2243L58.8478 14.6643L57.8072 14.0626C57.6956 13.4689 57.6458 12.8654 57.6587 12.2616C57.6702 11.7867 57.7198 11.3134 57.8072 10.8464L58.9963 10.1452L59.7805 9.68227M59.7805 9.09705C58.9722 9.5738 58.1613 10.0506 57.3554 10.5273C57.0899 11.8005 57.0925 13.1146 57.363 14.3868L59.8059 15.8145L62.5179 14.2518C62.2587 13.6881 62.1233 13.0759 62.1207 12.4562C62.118 11.8364 62.2483 11.2231 62.5026 10.6572L59.7767 9.09326L59.7805 9.09705Z" fill="white"/>
<path d="M60.4722 8.19795C60.4722 8.19795 60.4887 7.19651 60.4912 7.05651C60.4912 6.75381 60.509 6.01345 60.5153 5.62624C61.408 4.84867 62.4471 4.25492 63.5724 3.87939L65.8186 5.1293V7.87633C64.6523 8.04756 63.5959 8.65533 62.8656 9.57525L60.4722 8.19795Z" fill="white"/>
<path d="M63.547 4.1544L64.5851 4.73206L65.5635 5.27819V7.66323C64.4921 7.87097 63.5216 8.42961 62.8071 9.2499L60.7259 8.05927C60.7259 7.94323 60.7259 7.82341 60.7259 7.70611C60.7259 7.45386 60.7335 7.20161 60.7361 7.06792C60.7361 6.7917 60.7526 6.15224 60.7589 5.74738C61.5802 5.0482 62.5258 4.50792 63.547 4.1544ZM63.599 3.60449C62.3643 4.00141 61.2278 4.65298 60.264 5.51656C60.264 5.85206 60.245 6.72233 60.2386 7.05783C60.2386 7.32647 60.2234 7.94071 60.217 8.34683L62.9328 9.90449C63.2956 9.39808 63.7635 8.97492 64.3049 8.66356C64.8463 8.35221 65.4486 8.1599 66.0711 8.09963V4.98179L63.599 3.60449Z" fill="white"/>
</g>
<path d="M82.376 22C82.2 22 82.056 21.944 81.944 21.832C81.832 21.72 81.776 21.576 81.776 21.4V5.8C81.776 5.624 81.832 5.48 81.944 5.368C82.056 5.256 82.2 5.2 82.376 5.2H89.504C90.832 5.2 91.92 5.392 92.768 5.776C93.616 6.16 94.24 6.704 94.64 7.408C95.056 8.112 95.264 8.936 95.264 9.88C95.264 10.472 95.152 10.992 94.928 11.44C94.72 11.888 94.456 12.256 94.136 12.544C93.832 12.832 93.536 13.048 93.248 13.192C93.872 13.48 94.416 13.96 94.88 14.632C95.36 15.288 95.6 16.072 95.6 16.984C95.6 17.992 95.376 18.872 94.928 19.624C94.48 20.376 93.816 20.96 92.936 21.376C92.056 21.792 90.984 22 89.72 22H82.376ZM85.592 19.192H89.264C90.048 19.192 90.64 18.976 91.04 18.544C91.44 18.096 91.64 17.568 91.64 16.96C91.64 16.336 91.432 15.816 91.016 15.4C90.616 14.968 90.032 14.752 89.264 14.752H85.592V19.192ZM85.592 11.992H89.048C89.8 11.992 90.36 11.808 90.728 11.44C91.112 11.056 91.304 10.568 91.304 9.976C91.304 9.384 91.112 8.912 90.728 8.56C90.36 8.192 89.8 8.008 89.048 8.008H85.592V11.992ZM101.872 22.24C101.024 22.24 100.264 22.08 99.5915 21.76C98.9195 21.424 98.3835 20.976 97.9835 20.416C97.5835 19.856 97.3835 19.232 97.3835 18.544C97.3835 17.408 97.8395 16.512 98.7515 15.856C99.6795 15.2 100.896 14.752 102.4 14.512L105.544 14.056V13.624C105.544 13 105.4 12.52 105.112 12.184C104.824 11.848 104.32 11.68 103.6 11.68C103.072 11.68 102.648 11.784 102.328 11.992C102.008 12.2 101.76 12.472 101.584 12.808C101.456 13.016 101.272 13.12 101.032 13.12H98.7515C98.5755 13.12 98.4395 13.072 98.3435 12.976C98.2475 12.864 98.2075 12.736 98.2235 12.592C98.2235 12.32 98.3275 12 98.5355 11.632C98.7435 11.264 99.0635 10.904 99.4955 10.552C99.9275 10.184 100.48 9.88 101.152 9.64C101.824 9.4 102.648 9.28 103.624 9.28C104.632 9.28 105.496 9.4 106.216 9.64C106.936 9.88 107.512 10.216 107.944 10.648C108.376 11.08 108.696 11.584 108.904 12.16C109.112 12.72 109.216 13.328 109.216 13.984V21.4C109.216 21.576 109.16 21.72 109.048 21.832C108.936 21.944 108.792 22 108.616 22H106.264C106.104 22 105.968 21.944 105.856 21.832C105.744 21.72 105.688 21.576 105.688 21.4V20.512C105.48 20.816 105.2 21.104 104.848 21.376C104.496 21.632 104.072 21.84 103.576 22C103.095 22.16 102.528 22.24 101.872 22.24ZM102.832 19.744C103.36 19.744 103.832 19.632 104.248 19.408C104.664 19.184 104.992 18.84 105.232 18.376C105.472 17.912 105.592 17.328 105.592 16.624V16.216L103.36 16.576C102.496 16.72 101.864 16.936 101.464 17.224C101.064 17.512 100.864 17.864 100.864 18.28C100.864 18.584 100.952 18.848 101.128 19.072C101.32 19.296 101.568 19.464 101.872 19.576C102.176 19.688 102.496 19.744 102.832 19.744ZM112.721 22C112.545 22 112.401 21.944 112.289 21.832C112.177 21.72 112.121 21.576 112.121 21.4V5.56C112.121 5.384 112.177 5.24 112.289 5.128C112.401 5.016 112.545 4.96 112.721 4.96H115.121C115.281 4.96 115.417 5.016 115.529 5.128C115.641 5.24 115.697 5.384 115.697 5.56V21.4C115.697 21.576 115.641 21.72 115.529 21.832C115.417 21.944 115.281 22 115.121 22H112.721ZM119.331 22C119.155 22 119.011 21.944 118.899 21.832C118.787 21.72 118.731 21.576 118.731 21.4V5.56C118.731 5.384 118.787 5.24 118.899 5.128C119.011 5.016 119.155 4.96 119.331 4.96H121.731C121.891 4.96 122.027 5.016 122.139 5.128C122.251 5.24 122.307 5.384 122.307 5.56V21.4C122.307 21.576 122.251 21.72 122.139 21.832C122.027 21.944 121.891 22 121.731 22H119.331Z" fill="#262541"/>
<defs>
<clipPath id="clip0_84_6020">
<rect width="25" height="28" fill="white" transform="translate(54)"/>
</clipPath>
</defs>
</svg>

<svg xmlns="http://www.w3.org/2000/svg" width="124" height="28" fill="none"><path fill="#262541" d="M2.376 22a.585.585 0 0 1-.432-.168.585.585 0 0 1-.168-.432V5.8c0-.176.056-.32.168-.432a.585.585 0 0 1 .432-.168h7.128c1.328 0 2.416.192 3.264.576.848.384 1.472.928 1.872 1.632.416.704.624 1.528.624 2.472 0 .592-.112 1.112-.336 1.56a3.37 3.37 0 0 1-.792 1.104c-.304.288-.6.504-.888.648.624.288 1.168.768 1.632 1.44.48.656.72 1.44.72 2.352 0 1.008-.224 1.888-.672 2.64-.448.752-1.112 1.336-1.992 1.752-.88.416-1.952.624-3.216.624H2.376Zm3.216-2.808h3.672c.784 0 1.376-.216 1.776-.648.4-.448.6-.976.6-1.584 0-.624-.208-1.144-.624-1.56-.4-.432-.984-.648-1.752-.648H5.592v4.44Zm0-7.2h3.456c.752 0 1.312-.184 1.68-.552.384-.384.576-.872.576-1.464s-.192-1.064-.576-1.416c-.368-.368-.928-.552-1.68-.552H5.592v3.984ZM18.799 22a.585.585 0 0 1-.431-.168.585.585 0 0 1-.168-.432V5.56c0-.176.056-.32.168-.432a.585.585 0 0 1 .431-.168h2.4c.16 0 .296.056.409.168a.585.585 0 0 1 .168.432V21.4c0 .176-.056.32-.168.432a.555.555 0 0 1-.409.168h-2.4Zm9.682.24c-.848 0-1.608-.16-2.28-.48-.672-.336-1.208-.784-1.608-1.344-.4-.56-.6-1.184-.6-1.872 0-1.136.456-2.032 1.368-2.688.928-.656 2.144-1.104 3.648-1.344l3.144-.456v-.432c0-.624-.144-1.104-.432-1.44-.288-.336-.792-.504-1.512-.504-.528 0-.952.104-1.272.312-.32.208-.568.48-.744.816a.612.612 0 0 1-.552.312h-2.28c-.176 0-.312-.048-.408-.144a.485.485 0 0 1-.12-.384c0-.272.104-.592.312-.96.208-.368.528-.728.96-1.08.432-.368.984-.672 1.656-.912.672-.24 1.496-.36 2.472-.36 1.008 0 1.872.12 2.592.36s1.296.576 1.728 1.008c.432.432.752.936.96 1.512.208.56.312 1.168.312 1.824V21.4c0 .176-.056.32-.168.432a.585.585 0 0 1-.432.168h-2.352a.555.555 0 0 1-.408-.168.585.585 0 0 1-.168-.432v-.888a3.87 3.87 0 0 1-.84.864 4.491 4.491 0 0 1-1.272.624c-.48.16-1.048.24-1.704.24Zm.96-2.496c.528 0 1-.112 1.416-.336.416-.224.744-.568.984-1.032.24-.464.36-1.048.36-1.752v-.408l-2.232.36c-.864.144-1.496.36-1.896.648-.4.288-.6.64-.6 1.056 0 .304.088.568.264.792.192.224.44.392.744.504.304.112.624.168.96.168ZM39.307 22a.555.555 0 0 1-.408-.168.585.585 0 0 1-.168-.432V10.12c0-.176.056-.32.168-.432a.555.555 0 0 1 .408-.168h2.352c.176 0 .32.056.432.168a.585.585 0 0 1 .168.432v.936c.416-.512.952-.936 1.608-1.272.656-.336 1.456-.504 2.4-.504s1.768.216 2.472.648c.72.416 1.28 1.032 1.68 1.848.416.8.624 1.776.624 2.928V21.4c0 .176-.064.32-.192.432a.556.556 0 0 1-.408.168h-2.544a.585.585 0 0 1-.432-.168.585.585 0 0 1-.168-.432v-6.552c0-.848-.208-1.504-.624-1.968-.4-.48-.992-.72-1.776-.72-.752 0-1.352.24-1.8.72-.448.464-.672 1.12-.672 1.968V21.4c0 .176-.056.32-.168.432a.555.555 0 0 1-.408.168h-2.544Z"/><g clip-path="url(#a)"><path fill="#988CDA" d="m66.465 24.641-.254-.01a12.282 12.282 0 0 1-8.478-3.67 12.132 12.132 0 0 1-3.48-8.516C54.254 5.723 59.749.252 66.5.252s12.247 5.47 12.247 12.193c0 2.713-.976 5.398-2.9 7.983a22.228 22.228 0 0 1-4.375 4.36 21.592 21.592 0 0 1-5.006 2.842V24.64Z"/><path fill="#fff" d="M66.499.505a12.055 12.055 0 0 1 8.48 3.505 11.907 11.907 0 0 1 3.514 8.435c0 2.657-.96 5.297-2.85 7.832a21.918 21.918 0 0 1-4.326 4.31 21.22 21.22 0 0 1-4.599 2.665v-2.86l-.496-.012a12.027 12.027 0 0 1-8.306-3.593 11.881 11.881 0 0 1-3.408-8.342c0-6.584 5.38-11.94 11.99-11.94Zm0-.505a12.56 12.56 0 0 0-8.79 3.601 12.406 12.406 0 0 0-3.71 8.7 12.402 12.402 0 0 0 3.508 8.781 12.556 12.556 0 0 0 8.704 3.801V28a21.782 21.782 0 0 0 5.415-3.013 22.657 22.657 0 0 0 4.425-4.415c1.768-2.368 2.95-5.13 2.95-8.127 0-1.633-.322-3.25-.95-4.76a12.427 12.427 0 0 0-2.708-4.036A12.514 12.514 0 0 0 71.286.95 12.578 12.578 0 0 0 66.5 0Z"/><path fill="#fff" fill-rule="evenodd" d="M66.5 5.295c-3.967 0-7.183 3.196-7.183 7.138 0 3.943 3.216 7.14 7.183 7.14 3.967 0 7.183-3.197 7.183-7.14 0-3.942-3.216-7.138-7.183-7.138Zm-7.817 7.138c0-4.29 3.5-7.769 7.817-7.769s7.817 3.479 7.817 7.77c0 4.29-3.5 7.769-7.817 7.769s-7.817-3.479-7.817-7.77Z" clip-rule="evenodd"/><path fill="#fff" d="M70.144 9.586a4.638 4.638 0 0 0-2.946-1.707V5.13l2.241-1.247a9.002 9.002 0 0 1 3.054 1.759c.015.856.03 1.714.043 2.572l-2.392 1.373Z"/><path fill="#fff" d="M69.463 4.162c1.018.359 1.96.9 2.778 1.6l.038 2.311-2.077 1.193a4.883 4.883 0 0 0-2.75-1.599v-2.39l2.011-1.115Zm-.05-.55-2.469 1.37v3.12a4.392 4.392 0 0 1 3.131 1.814l2.717-1.559c-.015-.943-.03-1.887-.047-2.83l-.006-.008a9.35 9.35 0 0 0-3.32-1.91l-.006.003ZM70.807 14.132a4.59 4.59 0 0 0 .018-3.354l2.405-1.38 2.189 1.289a8.908 8.908 0 0 1-.006 3.533l-2.209 1.293-2.397-1.38Z"/><path fill="#fff" d="m73.228 9.69 1.965 1.157a8.74 8.74 0 0 1-.006 3.214l-.474.276-.657.378-.336.198-.516.3-2.082-1.197a4.859 4.859 0 0 0 .01-3.125l2.093-1.2m0-.586-2.72 1.565a4.343 4.343 0 0 1-.019 3.57l2.72 1.561 1.106-.647 1.325-.776a9.182 9.182 0 0 0 .008-3.854l-2.411-1.421-.01.002ZM67.198 19.733v-2.748a4.641 4.641 0 0 0 2.919-1.667l2.398 1.376-.024 1.135-.029 1.428a9.035 9.035 0 0 1-3.014 1.728l-2.25-1.252Z"/><path fill="#fff" d="m70.169 15.64 2.085 1.195-.009.378-.013.606c0 .175-.008.464-.015.757 0 .197-.007.397-.011.56a8.68 8.68 0 0 1-1.27.89 8.81 8.81 0 0 1-1.473.681l-1.033-.576-.978-.545v-2.39a4.882 4.882 0 0 0 2.717-1.557Zm-.127-.654a4.392 4.392 0 0 1-3.098 1.777v3.12l2.474 1.376a9.314 9.314 0 0 0 3.29-1.892l.032-1.537.028-1.285-2.722-1.562-.004.003ZM63.563 20.988a9.04 9.04 0 0 1-3.011-1.719l-.03-1.429c-.007-.329-.016-.756-.022-1.135l2.396-1.378a4.645 4.645 0 0 0 2.919 1.66v2.747l-2.252 1.254Z"/><path fill="#fff" d="M62.84 15.65a4.903 4.903 0 0 0 2.723 1.55v2.386l-2.03 1.126a8.79 8.79 0 0 1-2.736-1.561c0-.17 0-.354-.01-.538l-.017-.78c0-.285-.014-.646-.02-.987l2.084-1.195m.127-.652-2.717 1.56c.007.415.017.914.025 1.286l.032 1.54c.485.43 1.015.808 1.581 1.127.542.31 1.114.563 1.708.756l2.481-1.38v-3.124a4.368 4.368 0 0 1-3.11-1.766ZM57.585 14.222a9.094 9.094 0 0 1-.006-3.538l1.288-.757.911-.537 2.401 1.374a4.596 4.596 0 0 0 .018 3.382l-2.394 1.367-2.218-1.291Z"/><path fill="#fff" d="m59.78 9.678 2.088 1.2a4.85 4.85 0 0 0 .015 3.153l-2.078 1.193-.957-.56-1.04-.601a8.738 8.738 0 0 1 0-3.217l1.188-.7.785-.464m0-.585-2.426 1.43a9.364 9.364 0 0 0 .008 3.86l2.443 1.428 2.712-1.563a4.342 4.342 0 0 1-.015-3.595l-2.726-1.564.004.004ZM60.472 8.198l.02-1.141c0-.303.017-1.044.023-1.43a8.984 8.984 0 0 1 3.057-1.748l2.247 1.25v2.747a4.628 4.628 0 0 0-2.953 1.7l-2.394-1.378Z"/><path fill="#fff" d="m63.547 4.154 1.038.578.979.546v2.385a4.889 4.889 0 0 0-2.757 1.587l-2.081-1.19v-.354c0-.252.008-.504.01-.638 0-.276.017-.916.023-1.32a8.683 8.683 0 0 1 2.788-1.594Zm.052-.55a9.23 9.23 0 0 0-3.335 1.913c0 .335-.019 1.205-.025 1.54 0 .27-.016.884-.022 1.29l2.716 1.557A4.392 4.392 0 0 1 66.07 8.1V4.983L63.6 3.604Z"/></g><path fill="#262541" d="M82.376 22a.585.585 0 0 1-.432-.168.585.585 0 0 1-.168-.432V5.8c0-.176.056-.32.168-.432a.585.585 0 0 1 .432-.168h7.128c1.328 0 2.416.192 3.264.576.848.384 1.472.928 1.872 1.632.416.704.624 1.528.624 2.472 0 .592-.112 1.112-.336 1.56a3.37 3.37 0 0 1-.792 1.104c-.304.288-.6.504-.888.648.624.288 1.168.768 1.632 1.44.48.656.72 1.44.72 2.352 0 1.008-.224 1.888-.672 2.64-.448.752-1.112 1.336-1.992 1.752-.88.416-1.952.624-3.216.624h-7.344Zm3.216-2.808h3.672c.784 0 1.376-.216 1.776-.648.4-.448.6-.976.6-1.584 0-.624-.208-1.144-.624-1.56-.4-.432-.984-.648-1.752-.648h-3.672v4.44Zm0-7.2h3.456c.752 0 1.312-.184 1.68-.552.384-.384.576-.872.576-1.464s-.192-1.064-.576-1.416c-.368-.368-.928-.552-1.68-.552h-3.456v3.984Zm16.28 10.248c-.848 0-1.608-.16-2.28-.48-.672-.336-1.209-.784-1.608-1.344-.4-.56-.6-1.184-.6-1.872 0-1.136.456-2.032 1.367-2.688.928-.656 2.145-1.104 3.649-1.344l3.144-.456v-.432c0-.624-.144-1.104-.432-1.44-.288-.336-.792-.504-1.512-.504-.528 0-.952.104-1.272.312-.32.208-.568.48-.744.816a.612.612 0 0 1-.552.312h-2.28c-.176 0-.313-.048-.408-.144a.485.485 0 0 1-.12-.384c0-.272.103-.592.311-.96.209-.368.529-.728.96-1.08.432-.368.985-.672 1.657-.912s1.496-.36 2.472-.36c1.008 0 1.872.12 2.592.36s1.296.576 1.728 1.008c.432.432.752.936.96 1.512.208.56.312 1.168.312 1.824V21.4c0 .176-.056.32-.168.432a.585.585 0 0 1-.432.168h-2.352a.555.555 0 0 1-.408-.168.585.585 0 0 1-.168-.432v-.888a3.87 3.87 0 0 1-.84.864 4.491 4.491 0 0 1-1.272.624c-.481.16-1.048.24-1.704.24Zm.96-2.496c.528 0 1-.112 1.416-.336.416-.224.744-.568.984-1.032.24-.464.36-1.048.36-1.752v-.408l-2.232.36c-.864.144-1.496.36-1.896.648-.4.288-.6.64-.6 1.056 0 .304.088.568.264.792.192.224.44.392.744.504.304.112.624.168.96.168ZM112.721 22a.585.585 0 0 1-.432-.168.585.585 0 0 1-.168-.432V5.56c0-.176.056-.32.168-.432a.585.585 0 0 1 .432-.168h2.4c.16 0 .296.056.408.168a.585.585 0 0 1 .168.432V21.4c0 .176-.056.32-.168.432a.555.555 0 0 1-.408.168h-2.4Zm6.61 0a.585.585 0 0 1-.432-.168.585.585 0 0 1-.168-.432V5.56c0-.176.056-.32.168-.432a.585.585 0 0 1 .432-.168h2.4c.16 0 .296.056.408.168a.585.585 0 0 1 .168.432V21.4c0 .176-.056.32-.168.432a.555.555 0 0 1-.408.168h-2.4Z"/><defs><clipPath id="a"><path fill="#fff" d="M54 0h25v28H54z"/></clipPath></defs></svg>
